packages/core/src/svgs/tokens/mono/MCB.svg

<svg width="24" height="24" viewBox="0 0 24 24" fill="none" xmlns="http://www.w3.org/2000/svg">
<path d="M2.49833 17.4996C2.11783 17.4996 1.87834 17.0581 2.06433 16.7001L6.94287 7.32151C7.20686 6.81401 7.70487 6.5 8.24488 6.5H10.5019C10.8819 6.5 11.1219 6.94201 10.9354 7.29951L6.05636 16.678C5.79235 17.1855 5.29485 17.5001 4.75485 17.5001L2.49833 17.4996Z" fill="white"/>
<path d="M11.2546 17.5001H8.99816C8.61716 17.5001 8.37815 17.0586 8.56415 16.7005L13.4427 7.32202C13.7066 6.815 14.2047 6.5 14.7447 6.5H17.0017C17.3817 6.5 17.6218 6.94201 17.4352 7.29951L12.5562 16.678C12.2926 17.185 11.7947 17.5001 11.2546 17.5001Z" fill="white"/>
<path d="M17.7739 10.2632L16.6819 12.3801C16.5624 12.6144 16.5 12.8736 16.5 13.1367C16.5 13.3997 16.5624 13.6589 16.6819 13.8932L18.1354 16.7102C18.387 17.1982 18.8615 17.5002 19.3755 17.5002H21.5254C21.8875 17.5002 22.116 17.0762 21.9384 16.7327L18.6005 10.2632C18.42 9.9126 17.9554 9.9126 17.7739 10.2632Z" fill="white"/>
</svg>

<svg xmlns="http://www.w3.org/2000/svg" width="24" height="24" fill="none" viewBox="0 0 24 24">
    <path fill="#fff" d="M2.498 17.5c-.38 0-.62-.442-.434-.8l4.879-9.378c.264-.508.762-.822 1.302-.822h2.257c.38 0 .62.442.433.8l-4.879 9.378c-.264.508-.761.822-1.301.822zm8.757 0H8.998c-.38 0-.62-.441-.434-.8l4.879-9.378c.264-.507.762-.822 1.302-.822h2.257c.38 0 .62.442.433.8l-4.879 9.378c-.263.507-.761.822-1.301.822m6.519-7.237-1.092 2.117a1.67 1.67 0 0 0 0 1.513l1.453 2.817c.252.488.726.79 1.24.79h2.15c.363 0 .591-.424.413-.767l-3.337-6.47a.456.456 0 0 0-.827 0"/>
</svg>
